!!!SOCIAL_FUNCTION:	songs connected with legends
!!!PDT:	1939
!!!OTL: No_109_Song_Addressed_to_a_Shark.krn
!!!LANG: Non-Tone
!!!LING_GROUP: Wakashan
!!!REG: Pacific Northwest
**kern
*staff1
=1-
*clefF4
*k[f#]
*M2/4
4r
8B\L
8B\J
=2
4.B\
8B\
=3
4A\
4A\
=4
4.G\
8G\
=5
4G\
4G\
=6
(8E\L
8D\J)
8D\
8r
=7
4E\
8G\L
16B\L
16B\JJ
=8
(8.A\L
16G\Jk)
8.E\L
16A\Jk
=9
[2G\
=10
(4G\]
16E\)
16r
16G\LL
16G\JJ
=11
4.G\
8G\
=12
8E\L
[8D\J
8D\]
8r
==
*-
